!!!AGN: Motet
!!!SCT: Lowinsky (1968)
!!!voices: 4
!!!COM: Erasmus
!!!OTL: Gloriosi principes
**kern	**kern	**kern	**kern	**kern
*part5	*part4	*part3	*part2	*part1
*staff5	*staff4	*staff3	*staff2	*staff1
*I"Bassus	*I"Tenor II	*I"Tenor I	*I"Altus	*I"Superius
*I'B	*I'T. II	*I'T. I	*I'A	*I'S
*clefF4	*clefGv2	*clefGv2	*clefGv2	*clefG2
*k[]	*k[]	*k[]	*k[]	*k[]
*C:	*C:	*C:	*C:	*C:
*M2/1	*M2/1	*M2/1	*M2/1	*M2/1
*met(C|)	*met(C|)	*met(C|)	*met(C|)	*met(C|)
!!section: Prima pars: Gloriosa principes
!!!OMD: Prima pars: Gloriosa principes
1r	1G	0r	0r	0r
1D	1A	.	.	.
=1	=1	=1	=1	=1
1E	1G	0r	0r	0r
1F	1A	.	.	.
=2	=2	=2	=2	=2
1G	1B	0r	0g	0r
1E	[1c	.	.	.
=3	=3	=3	=3	=3
0D	2c]	0r	0f	0r
.	4B	.	.	.
.	4A	.	.	.
.	1B	.	.	.
=4	=4	=4	=4	=4
0C	1c	0r	0e	0r
.	1c	.	.	.
=5	=5	=5	=5	=5
1.D	1B	0r	1d	0r
.	1A	.	1f	.
4C	.	.	.	.
4D	.	.	.	.
=6	=6	=6	=6	=6
1E	2c	0r	1e	0r
.	1B	.	.	.
1E	.	.	2g	.
.	4A	.	[2g	.
.	4G	.	.	.
=7	=7	=7	=7	=7
0D	0A	0r	2g]	0r
.	.	.	4f#i	.
.	.	.	4e	.
.	.	.	1f#i	.
=8	=8	=8	=8	=8
0r	1G	0r	1g	0r
.	2r	.	2f	.
.	2G	.	2e	.
=9	=9	=9	=9	=9
0r	2A	0r	2e	0r
.	1c	.	2e	.
.	.	.	2e	.
.	2c	.	2A	.
=10	=10	=10	=10	=10
0r	2c	0r	2r	0g
.	2c	.	2.e	.
.	2c	.	.	.
.	.	.	4d	.
.	2c	.	4c	.
.	.	.	4B	.
=11	=11	=11	=11	=11
0r	2c	0r	4A	0a
.	.	.	4G	.
.	1c	.	4F	.
.	.	.	4E	.
.	.	.	1F	.
.	4B	.	.	.
.	4A	.	.	.
=12	=12	=12	=12	=12
0r	2B	0r	0E	0g
.	2A	.	.	.
.	1B	.	.	.
=13	=13	=13	=13	=13
0r	0A	0r	2r	1a
.	.	.	1e	.
.	.	.	.	[1cc
.	.	.	2f	.
=14	=14	=14	=14	=14
0r	0r	0G	1d	2cc]
.	.	.	.	4b
.	.	.	.	4a
.	.	.	1d	1b
=15	=15	=15	=15	=15
1F	1r	0A	0c	0cc
1F	1c	.	.	.
=16	=16	=16	=16	=16
1D	1d	0B	0r	0r
1D	1f	.	.	.
=17	=17	=17	=17	=17
0C	0e	0c	1G	0r
.	.	.	1G	.
=18	=18	=18	=18	=18
0r	2f	0A	2.A	0cc
.	1e	.	.	.
.	.	.	4B	.
.	.	.	4c	.
.	.	.	4d	.
.	4d	.	4e	.
.	4c	.	4f	.
=19	=19	=19	=19	=19
0r	4d	0G	4g	0b
.	4c	.	4f	.
.	4B	.	4e	.
.	4A	.	4d	.
.	1B	.	1e	.
=20	=20	=20	=20	=20
1r	1c	0F	2f	0a
.	.	.	4e	.
.	.	.	4d	.
1F	2.A	.	1c	.
.	4B	.	.	.
=21	=21	=21	=21	=21
2E	2c	0G	1r	0r
2D	1d	.	.	.
1E	.	.	1g	.
.	2c#i	.	.	.
=22	=22	=22	=22	=22
0D	1d	0A	2.f	0r
.	.	.	4e	.
.	2r	.	4f	.
.	.	.	4g	.
.	2d	.	[2a	.
=23	=23	=23	=23	=23
0r	4e	0A	4a]	0cc
.	4d	.	4g	.
.	4c	.	1g	.
.	4B	.	.	.
.	1c	.	.	.
.	.	.	2f#i	.
=24	=24	=24	=24	=24
1G	2d	0G	2g	1b
.	1B	.	2d	.
1E	.	.	2e	1g
.	[2c	.	2g	.
=25	=25	=25	=25	=25
0F	4c]	0r	4f	0a
.	4B	.	4e	.
.	4A	.	4d	.
.	4G	.	4c	.
.	1A	.	1d	.
=26	=26	=26	=26	=26
0E	0B	0r	[0e	0g
=27	=27	=27	=27	=27
0C	0c	0G	0e]	0r
=28	=28	=28	=28	=28
0BB	0d	0B	1d	0g
.	.	.	1G	.
=29	=29	=29	=29	=29
0AA	0e	0c	0r	1a
.	.	.	.	[1cc
=30	=30	=30	=30	=30
0GG	0r	0d	0g	2cc]
.	.	.	.	4b
.	.	.	.	4a
.	.	.	.	1b
=31	=31	=31	=31	=31
[0F	0c	0A	0a	0cc
=32	=32	=32	=32	=32
0F]	0A	0c	0f	0r
=33	=33	=33	=33	=33
1.C	0G	0c	1.e	0r
2D	.	.	2f	.
=34	=34	=34	=34	=34
1E	0r	0B	1g	0r
1E	.	.	1g	.
=35	=35	=35	=35	=35
2.F	2.A	0r	1a	1cc
4G	4B	.	.	.
2A	2c	.	2e	[1cc
[2F	2A	.	[2a	.
=36	=36	=36	=36	=36
2F]	2c	0r	2a]	1cc]
4E	2d	.	4g	.
4D	.	.	4f	.
1C	1e	.	4g	1cc
.	.	.	4f	.
.	.	.	4e	.
.	.	.	4d	.
=37	=37	=37	=37	=37
2.F	2.A	0r	2c	1cc
.	.	.	2f	.
4G	4B	.	.	.
2A	2c	.	2e	1cc
[2F	2A	.	[2a	.
=38	=38	=38	=38	=38
2F]	2c	0r	2a]	1cc
4E	2d	.	4g	.
4D	.	.	4f	.
2C	2e	.	2g	1cc
[2F	4A	.	[2a	.
.	4B	.	.	.
=39	=39	=39	=39	=39
2F]	4c	0r	2a]	0cc
.	4d	.	.	.
2G	2e	.	1g	.
1A	2c	.	.	.
.	2A	.	2f#i	.
=40	=40	=40	=40	=40
1G	2B	0d	1g	0b
.	4G	.	.	.
.	4A	.	.	.
1GG	4B	.	2r	.
.	4c	.	.	.
.	[2d	.	[2g	.
=41	=41	=41	=41	=41
0D	2d]	0d	2g]	0a
.	4c	.	4f#i	.
.	4B	.	4e	.
.	1A	.	1f#i	.
=42	=42	=42	=42	=42
1GG	1G	0d	1g	0b
2r	[1d	.	[1G	.
[2G	.	.	.	.
=43	=43	=43	=43	=43
2G]	2d]	0B	1G]	0dd
4F	2e	.	.	.
4E	.	.	.	.
1D	1f	.	1F	.
=44	=44	=44	=44	=44
0C	1e	0c	[0G	0ee
.	[1c	.	.	.
=45	=45	=45	=45	=45
1GG	2c]	0d	0G]	1.dd
.	4B	.	.	.
.	4A	.	.	.
1G	1B	.	.	.
.	.	.	.	4cc
.	.	.	.	4b
=46	=46	=46	=46	=46
2.C	1G	0e	1r	1cc
4D	.	.	.	.
2.E	2r	.	1G	1b
.	[2G	.	.	.
4F	.	.	.	.
=47	=47	=47	=47	=47
1G	4G]	0d	2.d	1b
.	4A	.	.	.
.	4B	.	.	.
.	4c	.	4e	.
2D	1d	.	2.f	1a
[2F	.	.	.	.
.	.	.	4g	.
=48	=48	=48	=48	=48
4F]	1A	0c	2a	1cc
4G	.	.	.	.
2A	.	.	2.a	.
1F	1r	.	.	1a
.	.	.	4g	.
.	.	.	4f	.
.	.	.	4e	.
=49	=49	=49	=49	=49
1G	2r	[0B	1d	1g
.	2.d	.	.	.
2D	.	.	2r	2f
.	4c	.	.	.
[2E	4B	.	[2G	[2g
.	4A	.	.	.
=50	=50	=50	=50	=50
2E]	1G	0B]	4G]	2g]
.	.	.	4A	.
4D	.	.	4B	4f
4C	.	.	4c	4e
2BB	2r	.	2d	2d
[2E	[2G	.	2B	[2g
=51	=51	=51	=51	=51
2E]	2G]	0c	2e	2g]
2F	2F	.	2A	2a
2E	2G	.	2e	2g
[2F	2c	.	2c	[2a
=52	=52	=52	=52	=52
2F]	2A	0d	2f	2a]
2G	2G	.	2d	2b
2F	2r	.	2a	2a
2G	[2G	.	2g	2b
=53	=53	=53	=53	=53
1C	2G]	0c	1e	1cc
.	1c	.	.	.
1F	.	.	2.A	1a
.	[2A	.	.	.
.	.	.	4B	.
=54	=54	=54	=54	=54
1F	4A]	1A	4c	1r
.	4B	.	4d	.
.	4c	.	4e	.
.	4d	.	4f	.
1E	4e	1G	1g	1b
.	4f	.	.	.
.	2g	.	.	.
=55	=55	=55	=55	=55
2F	2f	1A	2.c	2a
2.A	2e	.	.	2.cc
.	.	.	4B	.
.	2r	1c	2.A	.
4G	.	.	.	4b
[2F	[2A	.	.	[2a
.	.	.	4G	.
=56	=56	=56	=56	=56
4F]	2A]	1A	1F	4a]
4E	.	.	.	4g
2D	1d	.	.	4f
.	.	.	.	4e
2G	.	1B	1r	2d
2E	2e	.	.	2g
=57	=57	=57	=57	=57
1F	2c	1A	2.c	2a
.	2A	.	.	2cc
.	.	.	4d	.
2G	2r	2G	2e	2b
2D	2A	2d	2f	2a
=58	=58	=58	=58	=58
2E	2e	2B	2g	4a
.	.	.	.	4g
2C	2E	2c	2e	1g
1D	2F	1A	1d	.
.	2D	.	.	2f#i
=59	=59	=59	=59	=59
0E	1G	[0Gl	1B	[0gl
.	[1C	.	[1e	.
=60	=60	=60	=60	=60
0C	2C]	0G_	2e]	0g_
.	2D	.	2d	.
.	1E	.	1c	.
=61	=61	=61	=61	=61
00GGl	00Dl	00G]	00Bl	00g]
==	==	==	==	==
*-	*-	*-	*-	*-
!!!system-decoration: [*]
!!!RDF**kern: i = editorial accidental
!!!RDF**kern: l = terminal long
!!!ENC: Benjamin Ory
!!!END: 2021/1/5
!!!EED: Benjamin Ory
!!!EEV: 2021/04/22
!!!YEC: Copyright 2021 Benjamin Ory, All Rights Reserved
!!!ONB: Translated from MusicXML on 2021/04/22